!!!OTL: 740. Eintracht.
!!!ODT: @@DE
!!!ARE: Europa, Mitteleuropa, Deutschland, Westerwald
!!!SCT: B0740
!!!TXL: @@DE
!!!YEM: Copyright 1995, estate of Helmut Schaffrath.
**kern	**text
*ICvox	*
*Ivox	*
*clefG2	*
*M6/8	*
*k[f#]	*
*G:	*
!LO:TX:a:t=Ruhig.	!
{8d	Wie
=1	=1
4b	lieb-
8a	-lich
4g	iſt's
8e	hie-
=2	=2
(4d	-nie-
8g)	.
4g}	-den,
{8g	wenn
=3	=3
4a	Brü-
8a	-der
4a	treu-
8a	-ge-
=4	=4
4.b	-finnt
4r}	.
{8d	in
=5	=5
4b	Ein-
8b	-tracht
4dd	und
8dd	in
=6	=6
(4cc	Frie-
8e)	.
4e}	-den
{8e	ver-
=7	=7
4d	-traut
8g	bei-
4b	-ſam-
8a	-men
=8	=8
4.g	find!
4r}	.
==	==
!!!AGN: Moral - Lied, religioes
!!!GTL: Religioese Lieder
!!!ONB: ESAC (Essen Associative Code) Database: BOEHME
!!!AMT: compound duple
!!!AIN: vox
!!!EED: Helmut Schaffrath
!!!EEV: 1.0
!!Aus dem Weſterwald 1892.
!!@@COMMENT:"Aus K. Beckers handſchriftlicher Sammlung 1894."
!!@@END:
!!!URL-scan: https://archive.org/details/BoehmeVtLieder1895/page/n593/mode/2up
!!!ENC: Anna Maria Matuszewska
!!!EEV: 2024/18/07
*-	*-
